app/assets/images/general/icons/socials/vk-modal.svg

<svg width="35" height="35" viewBox="0 0 35 35" fill="none" xmlns="http://www.w3.org/2000/svg">
<path d="M17.5 35C27.165 35 35 27.165 35 17.5C35 7.83502 27.165 0 17.5 0C7.83502 0 0 7.83502 0 17.5C0 27.165 7.83502 35 17.5 35Z" fill="#4D76A1"/>
<path fill-rule="evenodd" clip-rule="evenodd" d="M16.8393 25.1753H18.2129C18.2129 25.1753 18.6278 25.1297 18.8396 24.9014C19.0346 24.6918 19.0283 24.2981 19.0283 24.2981C19.0283 24.2981 19.0015 22.4551 19.8569 22.1837C20.7001 21.9163 21.7829 23.9649 22.9306 24.7526C23.7984 25.3487 24.4579 25.218 24.4579 25.218L27.5266 25.1753C27.5266 25.1753 29.1319 25.0764 28.3707 23.8142C28.3083 23.711 27.9274 22.8806 26.0891 21.1742C24.165 19.3882 24.4226 19.6771 26.7405 16.5878C28.152 14.7064 28.7164 13.5578 28.5401 13.0659C28.372 12.5973 27.3338 12.7212 27.3338 12.7212L23.8786 12.7427C23.8786 12.7427 23.6225 12.7077 23.4325 12.8213C23.2469 12.9327 23.1274 13.1922 23.1274 13.1922C23.1274 13.1922 22.5805 14.6481 21.8512 15.8862C20.3126 18.4989 19.6975 18.6367 19.446 18.4745C18.8611 18.0964 19.0071 16.9556 19.0071 16.1452C19.0071 13.6133 19.3911 12.5577 18.2594 12.2844C17.8838 12.1936 17.6074 12.1337 16.6469 12.1241C15.414 12.1113 14.3705 12.1278 13.7797 12.4173C13.3866 12.6098 13.0834 13.0387 13.2681 13.0634C13.4964 13.0939 14.0137 13.2028 14.2879 13.5762C14.6419 14.0579 14.6295 15.1397 14.6295 15.1397C14.6295 15.1397 14.8329 18.1201 14.1544 18.4904C13.6886 18.7444 13.0497 18.2259 11.6781 15.8557C10.9752 14.6415 10.4446 13.2995 10.4446 13.2995C10.4446 13.2995 10.3423 13.0487 10.1598 12.9146C9.93829 12.752 9.62883 12.7003 9.62883 12.7003L6.34552 12.7218C6.34552 12.7218 5.85263 12.7355 5.67169 12.9498C5.51073 13.1404 5.6589 13.5347 5.6589 13.5347C5.6589 13.5347 8.22941 19.5486 11.1399 22.5792C13.8087 25.3578 16.8393 25.1753 16.8393 25.1753Z" fill="white"/>
</svg>

<svg width="35" height="35" fill="none" xmlns="http://www.w3.org/2000/svg"><path d="M17.5 35C27.165 35 35 27.165 35 17.5S27.165 0 17.5 0 0 7.835 0 17.5 7.835 35 17.5 35z" fill="#4D76A1"/><path fill-rule="evenodd" clip-rule="evenodd" d="M16.84 25.175h1.373s.415-.045.627-.274c.195-.21.188-.603.188-.603s-.026-1.843.829-2.114c.843-.268 1.926 1.78 3.074 2.569.867.596 1.527.465 1.527.465l3.069-.043s1.605-.099.844-1.36c-.063-.104-.444-.934-2.282-2.64-1.924-1.787-1.666-1.498.652-4.587 1.411-1.882 1.975-3.03 1.8-3.522-.169-.469-1.207-.345-1.207-.345l-3.455.022s-.257-.035-.447.078c-.185.112-.305.371-.305.371s-.546 1.456-1.276 2.694c-1.538 2.613-2.153 2.75-2.405 2.588-.585-.378-.439-1.518-.439-2.329 0-2.532.384-3.587-.748-3.86-.375-.091-.652-.151-1.612-.16-1.233-.014-2.276.003-2.867.292-.393.193-.697.622-.512.646.228.03.746.14 1.02.513.354.482.341 1.564.341 1.564s.204 2.98-.475 3.35c-.465.254-1.104-.264-2.476-2.634-.703-1.214-1.233-2.556-1.233-2.556s-.103-.251-.285-.385a1.433 1.433 0 00-.531-.215l-3.283.022s-.493.014-.674.228c-.161.19-.013.585-.013.585s2.57 6.014 5.48 9.044c2.67 2.779 5.7 2.596 5.7 2.596z" fill="#fff"/></svg>
